X: 10980
T: Drunken Gauger
R: slip jig
M: 9/8
K: Gmajor
GBd ege dBG|GBd ege d2B|GBd ege dBG|AGE GAB c2A|
GBd ege dBG|GBd gfe d2B|GBd ege dBG|AGE GAB c2A||
|:BAG AGE GED|~B3 GAB c2A|BAG AGE GED|GFG AGE D2A:|

